svgs/mobile_legends.svg

<svg xmlns="http://www.w3.org/2000/svg" width="24" height="24"><path d="M5 3h8c1 0 1 0 2 1l5 5c1 1 1 1 1 2v9l-3-4V9l-2.5-2.5L12 10Zm14 18-3-4v-7l-4 3.75L8 10v7l-2-2V7L3 4v9c0 1 0 1 1 2l5 5c1 1 1 1 2 1h1.5zM7 21l-4-4v4zM17 3l4 4V3Z"/></svg>

<?xml version="1.0" encoding="UTF-8" standalone="no"?>
<svg
   height="24"
   width="24"
   version="1.1"
   id="svg4"
   xmlns="http://www.w3.org/2000/svg"
   xmlns:svg="http://www.w3.org/2000/svg">
  <defs
     id="defs8" />
  <path
     d="m 5,3 h 8 c 1,0 1,0 2,1 l 5,5 c 1,1 1,1 1,2 v 9 L 18,16 V 9 L 15.5,6.5 12,10 Z M 19,21 16,17 V 10 L 12,13.75 8,10 v 7 L 6,15 V 7 L 3,4 v 9 c 0,1 0,1 1,2 l 5,5 c 1,1 1,1 2,1 h 1.5 z M 7,21 3,17 v 4 z M 17,3 21,7 V 3 Z"
     fill="#000000"
     id="path2" />
</svg>
